X:1593
T:Kit O'Mahony's Hornpipe
R:hornpipe
N:"Collected by F. O'Neill"
B:O'Neill's 1593
Z:Transcribed by Michael Hogan
M:C|
L:1/8
K:G
GA|B2 BG A2 AG|FGAB cAFD|BGBd cAGF|D2 G2 G2 GA|
B2 BG A2 AG|FGAB cAFD|fefd cAGF|D2 G2 G2 :|
|: D2|GABc d2 g2|defd cAGF|GABc d2 ef|gfge d2 ef|
gfge fefd|efed cdeg|gfefd cAGF|D2 G2 G2 :||
